img/Shape.svg

<svg width="20" height="18" viewBox="0 0 20 18" fill="none" xmlns="http://www.w3.org/2000/svg">
<path d="M9.23255 3.14111L10 4.0598L10.7675 3.14111C11.7948 1.91131 12.9738 1 14.25 1C16.855 1 19 3.19257 19 5.91429C19 6.91187 18.5489 8.11157 17.7307 9.41722C16.9238 10.7049 15.8217 11.9982 14.6663 13.1588C13.5135 14.3167 12.3316 15.3188 11.3857 16.0258C10.9115 16.3802 10.5094 16.6508 10.2092 16.8277C10.1274 16.8759 10.0577 16.9144 10 16.9443C9.94227 16.9144 9.87264 16.8759 9.79075 16.8277C9.49058 16.6508 9.08852 16.3802 8.61429 16.0258C7.66838 15.3188 6.48647 14.3167 5.3337 13.1588C4.17833 11.9982 3.07616 10.7049 2.26925 9.41722C1.45109 8.11157 1 6.91187 1 5.91429C1 3.19257 3.14497 1 5.75 1C7.0262 1 8.20521 1.91131 9.23255 3.14111ZM9.82661 17.0231C9.82673 17.0229 9.83088 17.0213 9.83865 17.0192C9.83037 17.0222 9.82648 17.0233 9.82661 17.0231ZM10.1613 17.0192C10.1691 17.0213 10.1733 17.0229 10.1734 17.0231C10.1735 17.0233 10.1696 17.0222 10.1613 17.0192Z" stroke="#5C4A4D" fill="#F0E7E7" stroke-width="2" stroke-linecap="round"/>
</svg>

<svg width="20" height="18" fill="none" xmlns="http://www.w3.org/2000/svg"><path d="M9.233 3.141L10 4.06l.768-.919C11.794 1.911 12.973 1 14.25 1 16.855 1 19 3.193 19 5.914c0 .998-.451 2.198-1.27 3.503-.806 1.288-1.908 2.581-3.064 3.742a30.963 30.963 0 01-3.28 2.867c-.474.354-.877.625-1.177.802a4.458 4.458 0 01-.209.116 4.487 4.487 0 01-.21-.116c-.3-.177-.701-.448-1.176-.802a30.959 30.959 0 01-3.28-2.867c-1.156-1.16-2.258-2.454-3.065-3.742C1.451 8.112 1 6.912 1 5.914 1 3.193 3.145 1 5.75 1c1.276 0 2.455.911 3.483 2.141zm.594 13.882l.012-.004a.085.085 0 01-.012.004zm.334-.004a.076.076 0 01.012.004l-.012-.004z" stroke="#5C4A4D" fill="#F0E7E7" stroke-width="2" stroke-linecap="round"/></svg>
